poi/svg/1807.svg

<?xml version="1.0" encoding="UTF-8" standalone="no"?>
<svg
   xmlns:dc="http://purl.org/dc/elements/1.1/"
   xmlns:cc="http://creativecommons.org/ns#"
   xmlns:rdf="http://www.w3.org/1999/02/22-rdf-syntax-ns#"
   xmlns:svg="http://www.w3.org/2000/svg"
   xmlns="http://www.w3.org/2000/svg"
   xmlns:sodipodi="http://sodipodi.sourceforge.net/DTD/sodipodi-0.dtd"
   xmlns:inkscape="http://www.inkscape.org/namespaces/inkscape"
   inkscape:version="1.0 (4035a4fb49, 2020-05-01)"
   sodipodi:docname="1807.svg"
   id="svg20"
   version="1.2"
   viewBox="0 0 42.519639 42.519639"
   height="14.999999mm"
   width="14.999999mm">
  <metadata
     id="metadata24">
    <rdf:RDF>
      <cc:Work
         rdf:about="">
        <dc:format>image/svg+xml</dc:format>
        <dc:type
           rdf:resource="http://purl.org/dc/dcmitype/StillImage" />
        <dc:title>Qt SVG Document</dc:title>
      </cc:Work>
    </rdf:RDF>
  </metadata>
  <sodipodi:namedview
     inkscape:current-layer="svg20"
     inkscape:window-maximized="0"
     inkscape:window-y="0"
     inkscape:window-x="0"
     inkscape:cy="28.346482"
     inkscape:cx="28.346482"
     inkscape:zoom="5.8410537"
     showgrid="false"
     id="namedview22"
     inkscape:window-height="480"
     inkscape:window-width="1034"
     inkscape:pageshadow="2"
     inkscape:pageopacity="0"
     guidetolerance="10"
     gridtolerance="10"
     objecttolerance="10"
     borderopacity="1"
     bordercolor="#666666"
     pagecolor="#ffffff" />
  <title
     id="title2">Qt SVG Document</title>
  <desc
     id="desc4">Generated with Qt</desc>
  <defs
     id="defs6" />
  <g
     transform="translate(5.25984,5.25984)"
     id="g18"
     stroke-linejoin="bevel"
     stroke-linecap="square"
     fill-rule="evenodd"
     stroke-width="1"
     stroke="#000000"
     fill="none">
    <g
       id="g10"
       font-style="normal"
       font-weight="400"
       font-size="7.8px"
       font-family="'MS Shell Dlg 2'"
       stroke="none"
       fill-opacity="1"
       fill="#a61215">
      <path
         id="path8"
         d="M 37.2598,16 C 37.2598,27.7415 27.7415,37.2598 16,37.2598 4.25851,37.2598 -5.25984,27.7415 -5.25984,16 -5.25984,4.25851 4.25851,-5.25984 16,-5.25984 27.7415,-5.25984 37.2598,4.25851 37.2598,16"
         fill-rule="evenodd"
         vector-effect="non-scaling-stroke" />
    </g>
    <g
       id="g14"
       font-style="normal"
       font-weight="400"
       font-size="7.8px"
       font-family="'MS Shell Dlg 2'"
       transform="translate(16,12.0315)"
       stroke="none"
       fill-opacity="0.94902"
       fill="#ffffff">
      <path
         id="path12"
         d="m 12.6099,10.7656 c 0.0839,0 0.1749,0.014 0.2729,0.042 0.098,0.028 0.189,0.042 0.273,0.042 v 2.5825 h -0.378 -0.4199 c -0.154,0 -0.3289,0 -0.5249,0 -0.196,0 -0.4549,-0.028 -0.7768,-0.084 H 9.04053 c -0.37793,0 -0.76636,-0.014 -1.16529,-0.0419 -0.39892,-0.028 -0.82934,-0.042 -1.29126,-0.042 -0.46191,-0.056 -0.91333,-0.084 -1.35424,-0.084 -0.44092,0 -0.90634,0 -1.39624,0 L 1.94385,10.4297 H -1.5415 c -0.85385,0 -1.79867,0.084 -2.83448,0.2519 -0.46191,0.084 -0.91333,0.1855 -1.35424,0.3045 -0.44092,0.119 -0.89234,0.2624 -1.35425,0.4304 -0.92383,0.3219 -1.78467,0.6649 -2.58252,1.0288 -0.40591,0.168 -0.79431,0.3604 -1.16531,0.5774 -0.3709,0.217 -0.7103,0.4444 -1.0183,0.6824 h -1.0078 V 6.94434 c 0.3219,-0.05599 0.6194,-0.08399 0.8923,-0.08399 0.273,0 0.4934,-0.02799 0.6614,-0.08398 0.4899,-0.08399 0.7349,-0.20297 0.7349,-0.35694 0,-0.11198 -0.014,-0.20996 -0.042,-0.29394 -0.028,-0.08399 -0.042,-0.16797 -0.042,-0.25195 0,-0.13998 -0.014,-0.27645 -0.042,-0.40943 -0.028,-0.13297 -0.042,-0.24145 -0.042,-0.32544 0,-0.25195 0.056,-0.44092 0.168,-0.56689 0,-0.16797 0.126,-0.25196 0.3779,-0.25196 h 1.80567 V 1.08643 c 0.12598,-0.111983 0.25895,-0.167973 0.39893,-0.167973 0.11197,-0.05599 0.25195,-0.083984 0.41992,-0.083984 0.29394,0.083984 0.5109,0.083984 0.65088,0 0.08398,0 0.19246,-0.006999 0.32544,-0.020996 0.13297,-0.013998 0.24145,-0.062989 0.32543,-0.146973 0.05599,-0.293945 0.09799,-0.5738933 0.12598,-0.839844 0.028,-0.26595 0.06999,-0.531901 0.12598,-0.797851 0.05599,-0.307939 0.10498,-0.605389 0.14697,-0.892339 0.04199,-0.28694 0.11898,-0.54939 0.23096,-0.78735 0.06998,-0.25195 0.16097,-0.5144 0.27295,-0.78735 0.11198,-0.27295 0.23795,-0.52141 0.37793,-0.74536 0.20996,-0.48991 0.5389,-0.90983 0.98681,-1.25977 0.15397,-0.19596 0.31494,-0.34643 0.48291,-0.45142 0.16797,-0.10498 0.33594,-0.22745 0.50391,-0.36743 0.26595,-0.16797 0.61588,-0.34993 1.0498,-0.5459 v 0.5459 h 2.792485 v 2.07862 C 0.677083,-4.25358 0.537109,-4.28857 0.411133,-4.28857 c -0.125977,0 -0.258952,0 -0.398926,0 -0.209961,0 -0.454915,0.10498 -0.734863,0.31494 -0.251953,0.16797 -0.426924,0.36393 -0.524904,0.58789 -0.19596,0.29394 -0.29394,0.64388 -0.29394,1.0498 V 7.97314 H 1.94385 V -2.25195 c 0,-0.15397 -0.014,-0.27995 -0.04199,-0.37793 -0.028,-0.09798 -0.042,-0.18897 -0.042,-0.27295 C 1.77588,-3.15479 1.6709,-3.34375 1.54492,-3.46973 h 2.77149 v 1.21778 H 5.68115 V 5.05469 H 7.78076 V 8.2251 h 2.07862 c 0.11197,0.18196 0.11197,0.37093 0,0.56689 C 9.7474,8.98796 9.78939,9.13493 9.98535,9.23291 h 0.25195 0.3569 0.378 0.2519 c 0.056,0.05599 0.084,0.09798 0.084,0.12598 v 0.08398 0.16797 c 0,0.05599 -0.014,0.08398 -0.042,0.08398 -0.028,0 -0.042,0.028 -0.042,0.08399 0,0.05599 0.028,0.11198 0.084,0.16797 0.126,0.05602 0.196,0.12252 0.21,0.19942 0.014,0.077 0.049,0.1155 0.1049,0.1155 0,0.056 0.014,0.098 0.042,0.126 0.028,0.028 0.042,0.07 0.042,0.126 0,0.056 0.056,0.1399 0.168,0.2519 h 0.252 0.4829"
         fill-rule="evenodd"
         vector-effect="none" />
    </g>
    <g
       id="g16"
       font-style="normal"
       font-weight="400"
       font-size="7.8px"
       font-family="'MS Shell Dlg 2'"
       stroke="none"
       fill-opacity="1"
       fill="#a61215" />
  </g>
</svg>

<?xml version="1.0" encoding="UTF-8" standalone="no"?>
<svg width="11.2889mm" height="11.2889mm"
 viewBox="0 0 32 32"
 xmlns="http://www.w3.org/2000/svg" xmlns:xlink="http://www.w3.org/1999/xlink"  version="1.2" baseProfile="tiny">
<title>Qt SVG Document</title>
<desc>Generated with Qt</desc>
<defs>
</defs>
<g fill="none" stroke="black" stroke-width="1" fill-rule="evenodd" stroke-linecap="square" stroke-linejoin="bevel" >

<g fill="#a61215" fill-opacity="1" stroke="none" transform="matrix(1,0,0,1,0,0)"
font-family="MS Shell Dlg 2" font-size="7.8" font-weight="400" font-style="normal" 
>
<path vector-effect="non-scaling-stroke" fill-rule="evenodd" d="M37.2598,16 C37.2598,27.7415 27.7415,37.2598 16,37.2598 C4.25851,37.2598 -5.25984,27.7415 -5.25984,16 C-5.25984,4.25851 4.25851,-5.25984 16,-5.25984 C27.7415,-5.25984 37.2598,4.25851 37.2598,16 "/>
</g>

<g fill="#ffffff" fill-opacity="0.94902" stroke="none" transform="matrix(1,0,0,1,16,12.0315)"
font-family="MS Shell Dlg 2" font-size="7.8" font-weight="400" font-style="normal" 
>
<path vector-effect="none" fill-rule="evenodd" d="M12.6099,10.7656 C12.6938,10.7656 12.7848,10.7796 12.8828,10.8076 C12.9808,10.8356 13.0718,10.8496 13.1558,10.8496 L13.1558,13.4321 L12.7778,13.4321 L12.3579,13.4321 C12.2039,13.4321 12.029,13.4321 11.833,13.4321 C11.637,13.4321 11.3781,13.4041 11.0562,13.3481 L9.04053,13.3481 C8.6626,13.3481 8.27417,13.3341 7.87524,13.3062 C7.47632,13.2782 7.0459,13.2642 6.58398,13.2642 C6.12207,13.2082 5.67065,13.1802 5.22974,13.1802 C4.78882,13.1802 4.3234,13.1802 3.8335,13.1802 L1.94385,10.4297 L-1.5415,10.4297 C-2.39535,10.4297 -3.34017,10.5137 -4.37598,10.6816 C-4.83789,10.7656 -5.28931,10.8671 -5.73022,10.9861 C-6.17114,11.1051 -6.62256,11.2485 -7.08447,11.4165 C-8.0083,11.7384 -8.86914,12.0814 -9.66699,12.4453 C-10.0729,12.6133 -10.4613,12.8057 -10.8323,13.0227 C-11.2032,13.2397 -11.5426,13.4671 -11.8506,13.7051 L-12.8584,13.7051 L-12.8584,6.94434 C-12.5365,6.88835 -12.239,6.86035 -11.9661,6.86035 C-11.6931,6.86035 -11.4727,6.83236 -11.3047,6.77637 C-10.8148,6.69238 -10.5698,6.5734 -10.5698,6.41943 C-10.5698,6.30745 -10.5838,6.20947 -10.6118,6.12549 C-10.6398,6.0415 -10.6538,5.95752 -10.6538,5.87354 C-10.6538,5.73356 -10.6678,5.59709 -10.6958,5.46411 C-10.7238,5.33114 -10.7378,5.22266 -10.7378,5.13867 C-10.7378,4.88672 -10.6818,4.69775 -10.5698,4.57178 C-10.5698,4.40381 -10.4438,4.31982 -10.1919,4.31982 L-8.38623,4.31982 L-8.38623,1.08643 C-8.26025,0.974447 -8.12728,0.918457 -7.9873,0.918457 C-7.87533,0.862467 -7.73535,0.834473 -7.56738,0.834473 C-7.27344,0.918457 -7.05648,0.918457 -6.9165,0.834473 C-6.83252,0.834473 -6.72404,0.827474 -6.59106,0.813477 C-6.45809,0.799479 -6.34961,0.750488 -6.26563,0.666504 C-6.20964,0.372559 -6.16764,0.0926107 -6.13965,-0.17334 C-6.11165,-0.43929 -6.06966,-0.705241 -6.01367,-0.971191 C-5.95768,-1.27913 -5.90869,-1.57658 -5.8667,-1.86353 C-5.82471,-2.15047 -5.74772,-2.41292 -5.63574,-2.65088 C-5.56576,-2.90283 -5.47477,-3.16528 -5.36279,-3.43823 C-5.25081,-3.71118 -5.12484,-3.95964 -4.98486,-4.18359 C-4.7749,-4.6735 -4.44596,-5.09342 -3.99805,-5.44336 C-3.84408,-5.63932 -3.68311,-5.78979 -3.51514,-5.89478 C-3.34717,-5.99976 -3.1792,-6.12223 -3.01123,-6.26221 C-2.74528,-6.43018 -2.39535,-6.61214 -1.96143,-6.80811 L-1.96143,-6.26221 L0.831055,-6.26221 L0.831055,-4.18359 C0.677083,-4.25358 0.537109,-4.28857 0.411133,-4.28857 C0.285156,-4.28857 0.152181,-4.28857 0.012207,-4.28857 C-0.197754,-4.28857 -0.442708,-4.18359 -0.722656,-3.97363 C-0.974609,-3.80566 -1.14958,-3.6097 -1.24756,-3.38574 C-1.44352,-3.0918 -1.5415,-2.74186 -1.5415,-2.33594 L-1.5415,7.97314 L1.94385,7.97314 L1.94385,-2.25195 C1.94385,-2.40592 1.92985,-2.5319 1.90186,-2.62988 C1.87386,-2.72786 1.85986,-2.81885 1.85986,-2.90283 C1.77588,-3.15479 1.6709,-3.34375 1.54492,-3.46973 L4.31641,-3.46973 L4.31641,-2.25195 L5.68115,-2.25195 L5.68115,5.05469 L7.78076,5.05469 L7.78076,8.2251 L9.85938,8.2251 C9.97135,8.40706 9.97135,8.59603 9.85938,8.79199 C9.7474,8.98796 9.78939,9.13493 9.98535,9.23291 L10.2373,9.23291 L10.5942,9.23291 L10.9722,9.23291 L11.2241,9.23291 C11.2801,9.2889 11.3081,9.33089 11.3081,9.35889 L11.3081,9.44287 L11.3081,9.61084 C11.3081,9.66683 11.2941,9.69482 11.2661,9.69482 C11.2381,9.69482 11.2241,9.72282 11.2241,9.77881 C11.2241,9.8348 11.2521,9.89079 11.3081,9.94678 C11.4341,10.0028 11.5041,10.0693 11.5181,10.1462 C11.5321,10.2232 11.5671,10.2617 11.623,10.2617 C11.623,10.3177 11.637,10.3597 11.665,10.3877 C11.693,10.4157 11.707,10.4577 11.707,10.5137 C11.707,10.5697 11.763,10.6536 11.875,10.7656 L12.127,10.7656 L12.6099,10.7656"/>
</g>

<g fill="#a61215" fill-opacity="1" stroke="none" transform="matrix(1,0,0,1,0,0)"
font-family="MS Shell Dlg 2" font-size="7.8" font-weight="400" font-style="normal" 
>
</g>
</g>
</svg>
